img/sponsors/leidos.svg

<?xml version="1.0" encoding="UTF-8" standalone="no"?>
<!-- Generator: Adobe Illustrator 18.1.1, SVG Export Plug-In . SVG Version: 6.00 Build 0)  -->

<svg
   xmlns:dc="http://purl.org/dc/elements/1.1/"
   xmlns:cc="http://creativecommons.org/ns#"
   xmlns:rdf="http://www.w3.org/1999/02/22-rdf-syntax-ns#"
   xmlns:svg="http://www.w3.org/2000/svg"
   xmlns="http://www.w3.org/2000/svg"
   xmlns:xlink="http://www.w3.org/1999/xlink"
   xmlns:sodipodi="http://sodipodi.sourceforge.net/DTD/sodipodi-0.dtd"
   xmlns:inkscape="http://www.inkscape.org/namespaces/inkscape"
   version="1.1"
   id="svg2985"
   sodipodi:docname="leidos.svg"
   inkscape:version="0.48.5 r10040"
   x="0px"
   y="0px"
   viewBox="-252.9 140.9 326.31 82.12"
   enable-background="new -252.9 140.9 320 320"
   xml:space="preserve"
   width="100%"
   height="100%"><metadata
     id="metadata46"><rdf:RDF><cc:Work
         rdf:about=""><dc:format>image/svg+xml</dc:format><dc:type
           rdf:resource="http://purl.org/dc/dcmitype/StillImage" /></cc:Work></rdf:RDF></metadata><defs
     id="defs44" /><sodipodi:namedview
     fit-margin-bottom="0"
     fit-margin-right="0"
     inkscape:snap-page="true"
     inkscape:current-layer="g2993"
     inkscape:window-maximized="0"
     inkscape:window-y="57"
     inkscape:window-x="109"
     inkscape:pageshadow="2"
     inkscape:pageopacity="0"
     inkscape:window-width="1258"
     inkscape:window-height="790"
     id="namedview2987"
     fit-margin-left="0"
     showgrid="false"
     inkscape:zoom="2"
     pagecolor="#ffffff"
     inkscape:cy="46.491736"
     fit-margin-top="0"
     objecttolerance="10"
     gridtolerance="10"
     guidetolerance="10"
     bordercolor="#666666"
     inkscape:cx="96.304862"
     borderopacity="1" /><g
     id="g2993"
     transform="matrix(1.25,0,0,-1.25,-10.965758,5.3949999)"
     inkscape:groupmode="layer"
     inkscape:label="Leidos_Transition_logo_Generic"><g
       id="g24"><defs
         id="defs26"><rect
           id="SVGID_5_"
           x="-241.5"
           y="-193"
           width="333"
           height="93.400002" /></defs><clipPath
         id="SVGID_6_"><use
           xlink:href="#SVGID_5_"
           overflow="visible"
           id="use30"
           style="overflow:visible"
           x="0"
           y="0"
           width="320"
           height="320" /></clipPath><g
         id="g3527"
         transform="matrix(2.25,0,0,2.25,8.23845,63.751825)"
         clip-path="url(#SVGID_6_)"><path
           id="path3529"
           inkscape:connector-curvature="0"
           d="m -87.5,-93.8 7.6,2.3 -5.4,4 -2.2,-6.3 z m 5.3,14.5 -1.8,-5.1 26,-0.7 -24.2,5.8 z"
           style="fill:#151641" /></g></g><g
       id="g3023"
       transform="translate(0,9.198001)"><g
         id="g5"><defs
           id="defs7"><rect
             height="93.400002"
             width="333"
             y="-193"
             x="-241.5"
             id="SVGID_1_" /></defs><clipPath
           id="SVGID_2_"><use
             id="use11"
             overflow="visible"
             xlink:href="#SVGID_1_"
             style="overflow:visible"
             x="0"
             y="0"
             width="320"
             height="320" /></clipPath><path
           d="m -53.6,-129.1 h -9.5 v -7.9 h 9.5 v 7.9 z m -9.5,-13.3 h 9.5 v -30.9 h -9.5 v 30.9 l 0,0 z m 107.5,-9.1 c -1.4,1.7 -3.2,2.6 -5.5,2.6 -1.6,0 -3.5,-0.7 -3.5,-2.5 0,-4.6 16.1,-0.7 16.1,-12.4 0,-7.9 -7.6,-10.2 -14.2,-10.2 -4.3,0 -9.1,1.1 -12.1,4.2 l 5.8,6.4 c 1.8,-2.2 3.9,-3.4 6.7,-3.4 2.2,0 4.3,0.6 4.3,2.2 0,5 -16.1,0.8 -16.1,12.5 0,7.2 6.5,10.4 13,10.4 4.1,0 8.6,-1 11.5,-4.1 l -6,-5.7 0,0 z M 5.7,-165.7 c 4.8,0 7.6,3.2 7.6,7.8 0,4.6 -2.9,7.8 -7.6,7.8 -4.8,0 -7.6,-3.2 -7.6,-7.8 0,-4.6 2.9,-7.8 7.6,-7.8 m 0,24 c 9.5,0 17.2,-6.4 17.2,-16.2 0,-9.8 -7.6,-16.2 -17.2,-16.2 -9.5,0 -17.2,6.4 -17.2,16.2 0.1,9.9 7.7,16.2 17.2,16.2 m -37.5,-8.3 c -4.8,0 -7.6,-3.2 -7.6,-7.8 0,-4.6 2.9,-7.8 7.6,-7.8 4.8,0 7.6,3.2 7.6,7.8 0,4.6 -2.9,7.8 -7.6,7.8 m 16.4,-23.3 h -8.8 v 4.1 h -0.1 c -1.5,-2.2 -5.2,-4.8 -9.5,-4.8 -9.1,0 -15.2,6.6 -15.2,16 0,8.6 5.3,16.5 14.1,16.5 3.9,0 7.6,-1.1 9.8,-4.1 h 0.1 v 16.6 l 9.5,2.2 v -46.5 z m -62.4,18.9 c 0.1,3.2 -2.4,5.8 -5.8,5.8 -4.2,0 -6.5,-2.9 -6.7,-5.8 h 12.5 z m 8,-13.6 c -3.1,-3.9 -8.1,-6.1 -13,-6.1 -9.5,0 -17.2,6.4 -17.2,16.2 0,9.9 7.6,16.2 17.2,16.2 8.9,0 14.5,-6.4 14.5,-16.2 v -3 h -22.1 c 0.8,-3.6 3.5,-6 7.2,-6 3.1,0 5.2,1.6 6.8,3.7 l 6.6,-4.8 z m -44.4,38.9 9.5,2.2 v -46.4 h -9.5 v 44.2 z"
           clip-path="url(#SVGID_2_)"
           inkscape:connector-curvature="0"
           id="path3521"
           style="fill:#151641" /></g><g
         id="g14"><defs
           id="defs16"><rect
             height="93.400002"
             width="333"
             y="-193"
             x="-241.5"
             id="SVGID_3_" /></defs><clipPath
           id="SVGID_4_"><use
             id="use20"
             overflow="visible"
             xlink:href="#SVGID_3_"
             style="overflow:visible"
             x="0"
             y="0"
             width="320"
             height="320" /></clipPath><g
           clip-path="url(#SVGID_4_)"
           transform="matrix(2.25,0,0,2.25,3.3276,85.231)"
           id="g3523"><path
             d="m -87.5,-93.8 4.4,-3.3 1.1,3.2 -5.5,0.1 z m 14.5,-10.7 -4.6,3.4 21.8,6.5 -17.2,-9.9 z"
             inkscape:connector-curvature="0"
             id="path3525"
             style="fill:#d7d4d4" /></g></g><g
         id="g34"><defs
           id="defs36"><rect
             height="93.400002"
             width="333"
             y="-193"
             x="-241.5"
             id="SVGID_7_" /></defs><clipPath
           id="SVGID_8_"><use
             id="use40"
             overflow="visible"
             xlink:href="#SVGID_7_"
             style="overflow:visible"
             x="0"
             y="0"
             width="320"
             height="320" /></clipPath><g
           clip-path="url(#SVGID_8_)"
           transform="matrix(2.25,0,0,2.25,15.87945,84.9169)"
           id="g3531"><path
             d="m -87.5,-93.8 -1.1,-3.2 5.4,-4 21.8,6.5 -26.1,0.7 z"
             inkscape:connector-curvature="0"
             id="path3533"
             style="fill:#89188b" /></g></g></g></g></svg>

<?xml version="1.0" encoding="utf-8"?>
<!-- Generator: Adobe Illustrator 18.1.1, SVG Export Plug-In . SVG Version: 6.00 Build 0)  -->
<svg version="1.1"
	 id="svg2985" sodipodi:docname="Leidos_Transition_logo_Generic.svg" inkscape:version="0.48.4 r9939" xmlns:inkscape="http://www.inkscape.org/namespaces/inkscape" xmlns:sodipodi="http://sodipodi.sourceforge.net/DTD/sodipodi-0.dtd" xmlns:svg="http://www.w3.org/2000/svg" xmlns:rdf="http://www.w3.org/1999/02/22-rdf-syntax-ns#" xmlns:cc="http://creativecommons.org/ns#" xmlns:dc="http://purl.org/dc/elements/1.1/"
	 xmlns="http://www.w3.org/2000/svg" xmlns:xlink="http://www.w3.org/1999/xlink" x="0px" y="0px" viewBox="-252.9 140.9 320 320"
	 enable-background="new -252.9 140.9 320 320" xml:space="preserve">
<sodipodi:namedview  fit-margin-bottom="0" fit-margin-right="0" inkscape:snap-page="true" inkscape:current-layer="g2993" inkscape:window-maximized="0" inkscape:window-y="0" inkscape:window-x="0" inkscape:pageshadow="2" inkscape:pageopacity="0" inkscape:window-width="1258" inkscape:window-height="790" id="namedview2987" fit-margin-left="0" showgrid="false" inkscape:zoom="2" pagecolor="#ffffff" inkscape:cy="9.3435159" fit-margin-top="0" objecttolerance="10" gridtolerance="10" guidetolerance="10" bordercolor="#666666" inkscape:cx="102.61112" borderopacity="1">
	</sodipodi:namedview>
<g id="g2993" transform="matrix(1.25,0,0,-1.25,-4.1595,120.42322)" inkscape:groupmode="layer" inkscape:label="Leidos_Transition_logo_Generic">
	<g>
		<defs>
			<rect id="SVGID_1_" x="-241.5" y="-193" width="333" height="93.4"/>
		</defs>
		<clipPath id="SVGID_2_">
			<use xlink:href="#SVGID_1_"  overflow="visible"/>
		</clipPath>
		<path id="path3521" inkscape:connector-curvature="0" clip-path="url(#SVGID_2_)" fill="#151641" d="M-53.6-129.1h-9.5v-7.9h9.5
			V-129.1z M-63.1-142.4h9.5v-30.9h-9.5V-142.4L-63.1-142.4z M44.4-151.5c-1.4,1.7-3.2,2.6-5.5,2.6c-1.6,0-3.5-0.7-3.5-2.5
			c0-4.6,16.1-0.7,16.1-12.4c0-7.9-7.6-10.2-14.2-10.2c-4.3,0-9.1,1.1-12.1,4.2l5.8,6.4c1.8-2.2,3.9-3.4,6.7-3.4
			c2.2,0,4.3,0.6,4.3,2.2c0,5-16.1,0.8-16.1,12.5c0,7.2,6.5,10.4,13,10.4c4.1,0,8.6-1,11.5-4.1L44.4-151.5L44.4-151.5z M5.7-165.7
			c4.8,0,7.6,3.2,7.6,7.8c0,4.6-2.9,7.8-7.6,7.8c-4.8,0-7.6-3.2-7.6-7.8C-1.9-162.5,1-165.7,5.7-165.7 M5.7-141.7
			c9.5,0,17.2-6.4,17.2-16.2c0-9.8-7.6-16.2-17.2-16.2c-9.5,0-17.2,6.4-17.2,16.2C-11.4-148-3.8-141.7,5.7-141.7 M-31.8-150
			c-4.8,0-7.6-3.2-7.6-7.8c0-4.6,2.9-7.8,7.6-7.8c4.8,0,7.6,3.2,7.6,7.8C-24.2-153.2-27.1-150-31.8-150 M-15.4-173.3h-8.8v4.1h-0.1
			c-1.5-2.2-5.2-4.8-9.5-4.8c-9.1,0-15.2,6.6-15.2,16c0,8.6,5.3,16.5,14.1,16.5c3.9,0,7.6-1.1,9.8-4.1h0.1v16.6l9.5,2.2V-173.3z
			 M-77.8-154.4c0.1,3.2-2.4,5.8-5.8,5.8c-4.2,0-6.5-2.9-6.7-5.8H-77.8z M-69.8-168c-3.1-3.9-8.1-6.1-13-6.1
			c-9.5,0-17.2,6.4-17.2,16.2c0,9.9,7.6,16.2,17.2,16.2c8.9,0,14.5-6.4,14.5-16.2v-3h-22.1c0.8-3.6,3.5-6,7.2-6
			c3.1,0,5.2,1.6,6.8,3.7L-69.8-168z M-114.2-129.1l9.5,2.2v-46.4h-9.5V-129.1z"/>
	</g>
	<g>
		<defs>
			<rect id="SVGID_3_" x="-241.5" y="-193" width="333" height="93.4"/>
		</defs>
		<clipPath id="SVGID_4_">
			<use xlink:href="#SVGID_3_"  overflow="visible"/>
		</clipPath>
		<g id="g3523" transform="matrix(2.25,0,0,2.25,3.3276,85.231)" clip-path="url(#SVGID_4_)">
			<path id="path3525" inkscape:connector-curvature="0" fill="#D7D4D4" d="M-87.5-93.8l4.4-3.3l1.1,3.2L-87.5-93.8z M-73-104.5
				l-4.6,3.4l21.8,6.5L-73-104.5z"/>
		</g>
	</g>
	<g>
		<defs>
			<rect id="SVGID_5_" x="-241.5" y="-193" width="333" height="93.4"/>
		</defs>
		<clipPath id="SVGID_6_">
			<use xlink:href="#SVGID_5_"  overflow="visible"/>
		</clipPath>
		<g id="g3527" transform="matrix(2.25,0,0,2.25,8.23845,63.751825)" clip-path="url(#SVGID_6_)">
			<path id="path3529" inkscape:connector-curvature="0" fill="#151641" d="M-87.5-93.8l7.6,2.3l-5.4,4L-87.5-93.8z M-82.2-79.3
				l-1.8-5.1l26-0.7L-82.2-79.3z"/>
		</g>
	</g>
	<g>
		<defs>
			<rect id="SVGID_7_" x="-241.5" y="-193" width="333" height="93.4"/>
		</defs>
		<clipPath id="SVGID_8_">
			<use xlink:href="#SVGID_7_"  overflow="visible"/>
		</clipPath>
		<g id="g3531" transform="matrix(2.25,0,0,2.25,15.87945,84.9169)" clip-path="url(#SVGID_8_)">
			<path id="path3533" inkscape:connector-curvature="0" fill="#89188B" d="M-87.5-93.8l-1.1-3.2l5.4-4l21.8,6.5L-87.5-93.8z"/>
		</g>
	</g>
</g>
</svg>
